static/logos/betterStack-glyph-color.svg

<svg width="50" height="44" viewBox="0 0 50 44" fill="none" xmlns="http://www.w3.org/2000/svg">
<g clip-path="url(#clip0_1_3407)">
<path fill-rule="evenodd" clip-rule="evenodd" d="M40.2099 33.3296L44.2243 34.102C48.2099 34.8692 51.2517 30.5968 49.2222 27.0823L34.9758 2.40958C32.9463 -1.10499 27.7252 -0.607231 26.3967 3.22746L25.0583 7.09006C25.8258 7.64598 26.5025 8.37951 27.0309 9.29486L39.2865 30.5196C39.815 31.4347 40.112 32.3873 40.2099 33.3296ZM37.7786 32.8619C37.6729 32.4613 37.5107 32.0627 37.2864 31.6745L25.0308 10.4495C24.8064 10.0609 24.5422 9.72092 24.2481 9.42918L21.6562 16.9102L26.3967 30.6716L37.7786 32.8619Z" fill="black"/>
<path d="M4.12045 40.9206C1.14085 40.4515 -0.647367 37.3547 0.436117 34.54L5.70781 20.8458C7.13859 17.1285 12.2398 16.7294 14.2316 20.1789L23.457 36.1555C25.4487 39.6049 22.5523 43.8227 18.6173 43.2031L4.12045 40.9206Z" fill="black"/>
<path fill-rule="evenodd" clip-rule="evenodd" d="M26.393 37.9169L32.554 38.7378C36.4509 39.2567 39.248 35.0783 37.2824 31.674L25.0265 10.4489C23.061 7.04492 18.0431 7.37759 16.5445 11.0114L14.1749 16.7567C14.9769 17.3192 15.6843 18.0732 16.2332 19.0236L25.4587 35.0003C26.0075 35.9511 26.3067 36.9409 26.393 37.9169ZM24.0114 37.5997C23.9119 37.1133 23.7308 36.6269 23.4583 36.155L14.2331 20.1783C13.9607 19.7066 13.6301 19.3067 13.2586 18.9777L8.88443 29.5832C7.69924 32.4571 9.55691 35.674 12.6383 36.0846L24.0114 37.5997Z" fill="black"/>
</g>
<defs>
<clipPath id="clip0_1_3407">
<rect width="50" height="43.2976" fill="white"/>
</clipPath>
</defs>
</svg>

<svg xmlns="http://www.w3.org/2000/svg" width="72.727" height="64" fill="none" viewBox="0 0 50 44"><g fill="#000" clip-path="url(#a)"><path fill-rule="evenodd" d="m40.21 33.33 4.014.772c3.986.767 7.028-3.505 4.998-7.02L34.976 2.41c-2.03-3.515-7.25-3.017-8.58.817L25.059 7.09a7.055 7.055 0 0 1 1.973 2.205L39.286 30.52c.529.915.826 1.867.924 2.81Zm-2.431-.468c-.106-.4-.268-.8-.493-1.188L25.031 10.45a4.844 4.844 0 0 0-.783-1.02l-2.592 7.48 4.74 13.762 11.383 2.19Z" clip-rule="evenodd"/><path d="M4.12 40.92c-2.98-.468-4.767-3.565-3.684-6.38l5.272-13.694c1.43-3.718 6.532-4.117 8.524-.667l9.225 15.977c1.992 3.449-.905 7.667-4.84 7.047L4.12 40.921Z"/><path fill-rule="evenodd" d="m26.393 37.917 6.161.82c3.897.52 6.694-3.659 4.728-7.063L25.027 10.449c-1.966-3.404-6.984-3.071-8.483.562l-2.37 5.746a7.052 7.052 0 0 1 2.06 2.267L25.458 35c.549.951.848 1.94.934 2.917Zm-2.382-.317c-.1-.487-.28-.973-.553-1.445l-9.225-15.977a4.805 4.805 0 0 0-.974-1.2L8.884 29.583c-1.185 2.874.673 6.091 3.754 6.502L24.011 37.6Z" clip-rule="evenodd"/></g><defs><clipPath id="a"><path fill="#fff" d="M0 0h50v43.298H0z"/></clipPath></defs></svg>
